svg/24/octagon--filled.svg

<svg width="24" height="24" viewBox="0 0 24 24" fill="currentColor" xmlns="http://www.w3.org/2000/svg"><path fill-rule="evenodd" clip-rule="evenodd" d="M15.1066 2.5C15.637 2.5 16.1457 2.71071 16.5208 3.08579L20.9142 7.47918C21.2893 7.85426 21.5 8.36296 21.5 8.8934V15.1066C21.5 15.637 21.2893 16.1457 20.9142 16.5208L16.5208 20.9142C16.1457 21.2893 15.637 21.5 15.1066 21.5L8.8934 21.5C8.36297 21.5 7.85426 21.2893 7.47918 20.9142L3.08579 16.5208C2.71071 16.1457 2.5 15.637 2.5 15.1066V8.8934C2.5 8.36297 2.71071 7.85426 3.08579 7.47919L7.47918 3.08579C7.85426 2.71071 8.36297 2.5 8.8934 2.5H15.1066Z"/></svg>

<svg xmlns="http://www.w3.org/2000/svg" width="24" height="24" fill="currentColor" viewBox="0 0 24 24">
  <path fill-rule="evenodd" d="M15.107 2.5a2 2 0 0 1 1.414.586l4.393 4.393a2 2 0 0 1 .586 1.414v6.214a2 2 0 0 1-.586 1.414l-4.393 4.393a2 2 0 0 1-1.414.586H8.893a2 2 0 0 1-1.414-.586l-4.393-4.393a2 2 0 0 1-.586-1.414V8.893a2 2 0 0 1 .586-1.414l4.393-4.393A2 2 0 0 1 8.893 2.5h6.214Z" clip-rule="evenodd"/>
</svg>
